**harm	**harte	**timestamp	**phrase	**leadinstrument	**kern
*M4/4	*M4/4	*	*	*	*
*e:	*e:	*	*	*	*e:
1r;	N	0	.	r	1r;
=1	=1	=1	=1	=1	=1
*>A_intro	*>A_intro	*>A_intro	*>A_intro	*>A_intro	*>A_intro
1r	N	0.618	newline	drum kit	1r
=2	=2	=2	=2	=2	=2
1r	N	2.625	.	drum kit	1r
=3	=3	=3	=3	=3	=3
1r	N	4.631	.	drum kit	1r
=4	=4	=4	=4	=4	=4
1r	N	6.637	.	drum kit	1r
=5	=5	=5	=5	=5	=5
1r	N	8.644	.	drum kit	1r
=6	=6	=6	=6	=6	=6
1r	N	10.65	.	drum kit	1r
=7	=7	=7	=7	=7	=7
1r	N	12.656	.	drum kit	1r
=8	=8	=8	=8	=8	=8
1r	N	14.663	.	drum kit	1r
=9	=9	=9	=9	=9	=9
1-VII	D:1	16.669	newline	bass guitar	1D 1f# 1a
=10	=10	=10	=10	=10	=10
1-VII	D:1	18.565	.	bass guitar	1D 1f# 1a
=11	=11	=11	=11	=11	=11
1-VII	D:1	20.461	.	bass guitar	1D 1f# 1a
=12	=12	=12	=12	=12	=12
1-VII	D:1	22.357	.	bass guitar	1D 1f# 1a
=13	=13	=13	=13	=13	=13
1-VII	D:1	24.253	newline	bass guitar	1D 1f# 1a
=14	=14	=14	=14	=14	=14
1-VII	D:1	26.166	.	bass guitar	1D 1f# 1a
=15	=15	=15	=15	=15	=15
1-VII	D:1	28.078	.	bass guitar	1D 1f# 1a
=16	=16	=16	=16	=16	=16
1-VII	D:1	29.991	.	bass guitar	1D 1f# 1a
=17	=17	=17	=17	=17	=17
*>B_verse	*>B_verse	*>B_verse	*>B_verse	*>B_verse	*>B_verse
1i	E:min	31.904	newline	voice	1E 1g 1b
=18	=18	=18	=18	=18	=18
1i	E:min	33.849	.	voice	1E 1g 1b
=19	=19	=19	=19	=19	=19
1i	E:min	35.795	.	voice	1E 1g 1b
=20	=20	=20	=20	=20	=20
1i	E:min	37.74	.	voice	1E 1g 1b
=21	=21	=21	=21	=21	=21
1i	E:min	39.685	newline	voice	1E 1g 1b
=22	=22	=22	=22	=22	=22
1i	E:min	41.603	.	voice	1E 1g 1b
=23	=23	=23	=23	=23	=23
1i	E:min	43.52	.	voice	1E 1g 1b
=24	=24	=24	=24	=24	=24
1i	E:min	45.438	.	voice	1E 1g 1b
=25	=25	=25	=25	=25	=25
1i	E:min	47.355	newline	voice	1E 1g 1b
=26	=26	=26	=26	=26	=26
1i	E:min	49.269	.	voice	1E 1g 1b
=27	=27	=27	=27	=27	=27
1i	E:min	51.184	.	voice	1E 1g 1b
=28	=28	=28	=28	=28	=28
1i	E:min	53.098	.	voice	1E 1g 1b
=29	=29	=29	=29	=29	=29
1i	E:min	55.012	newline	voice	1E 1g 1b
=30	=30	=30	=30	=30	=30
1i	E:min	56.91	.	voice	1E 1g 1b
=31	=31	=31	=31	=31	=31
1i	E:min	58.807	.	voice	1E 1g 1b
=32	=32	=32	=32	=32	=32
1i	E:min	60.705	.	voice	1E 1g 1b
=33	=33	=33	=33	=33	=33
*>C_prechorus	*>C_prechorus	*>C_prechorus	*>C_prechorus	*>C_prechorus	*>C_prechorus
1-VI	C:maj	62.603	newline	voice	1C- 1e- 1g-
=34	=34	=34	=34	=34	=34
1-VII	D:maj	64.522	.	voice	1D 1f# 1a
=35	=35	=35	=35	=35	=35
1i	E:min	66.44	.	voice	1E 1g 1b
=36	=36	=36	=36	=36	=36
1i	E:min	68.359	.	voice	1E 1g 1b
=37	=37	=37	=37	=37	=37
1-VI	C:maj	70.277	newline	voice	1C- 1e- 1g-
=38	=38	=38	=38	=38	=38
1-VII	D:maj	72.186	.	voice	1D 1f# 1a
=39	=39	=39	=39	=39	=39
1i	E:min	74.095	.	voice	1E 1g 1b
=40	=40	=40	=40	=40	=40
1i	E:min	76.004	.	voice	1E 1g 1b
=41	=41	=41	=41	=41	=41
*>D_chorus	*>D_chorus	*>D_chorus	*>D_chorus	*>D_chorus	*>D_chorus
1i	E:min	77.913	newline	voice	1E 1g 1b
=42	=42	=42	=42	=42	=42
2-VI	C:maj	79.838	.	voice	2C- 2e- 2g-
2-VII	D:sus4	80.801	.	voice	2D 2f# 2a
=43	=43	=43	=43	=43	=43
1i	E:min	81.763	.	voice	1E 1g 1b
=44	=44	=44	=44	=44	=44
2-VI	C:maj	83.688	.	voice	2C- 2e- 2g-
2-VII	D:sus4	84.651	.	voice	2D 2f# 2a
=45	=45	=45	=45	=45	=45
1i	E:min	85.614	newline	voice	1E 1g 1b
=46	=46	=46	=46	=46	=46
2-VI	C:maj	87.531	.	voice	2C- 2e- 2g-
2-VII	D:sus4	88.49	.	voice	2D 2f# 2a
=47	=47	=47	=47	=47	=47
1i	E:min	89.448	.	voice	1E 1g 1b
=48	=48	=48	=48	=48	=48
2-VI	C:maj	91.365	.	voice	2C- 2e- 2g-
2-VII	D:sus4	92.324	.	voice	2D 2f# 2a
=49	=49	=49	=49	=49	=49
1i	E:min	93.283	newline	voice	1E 1g 1b
=50	=50	=50	=50	=50	=50
2-VI	C:maj	95.187	.	voice	2C- 2e- 2g-
2-VII	D:sus4	96.139	.	voice	2D 2f# 2a
=51	=51	=51	=51	=51	=51
1i	E:min	97.091	.	voice	1E 1g 1b
=52	=52	=52	=52	=52	=52
2-VI	C:maj	98.995	.	voice	2C- 2e- 2g-
2-VII	D:sus4	99.947	.	voice	2D 2f# 2a
=53	=53	=53	=53	=53	=53
1i	E:min	100.899	newline	voice	1E 1g 1b
=54	=54	=54	=54	=54	=54
2-VI	C:maj	102.809	.	voice	2C- 2e- 2g-
2-VII	D:sus4	103.763	.	voice	2D 2f# 2a
=55	=55	=55	=55	=55	=55
1i	E:min	104.718	.	voice	1E 1g 1b
=56	=56	=56	=56	=56	=56
2-VI	C:maj	106.627	.	voice	2C- 2e- 2g-
2-VII	D:sus4	107.582	.	voice	2D 2f# 2a
=57	=57	=57	=57	=57	=57
*>B_verse	*>B_verse	*>B_verse	*>B_verse	*>B_verse	*>B_verse
1i	E:min	108.536	newline	voice	1E 1g 1b
=58	=58	=58	=58	=58	=58
1i	E:min	110.454	.	voice	1E 1g 1b
=59	=59	=59	=59	=59	=59
1i	E:min	112.372	.	voice	1E 1g 1b
=60	=60	=60	=60	=60	=60
1i	E:min	114.29	.	voice	1E 1g 1b
=61	=61	=61	=61	=61	=61
1i	E:min	116.207	newline	voice	1E 1g 1b
=62	=62	=62	=62	=62	=62
1i	E:min	118.119	.	voice	1E 1g 1b
=63	=63	=63	=63	=63	=63
1i	E:min	120.031	.	voice	1E 1g 1b
=64	=64	=64	=64	=64	=64
1i	E:min	121.942	.	voice	1E 1g 1b
=65	=65	=65	=65	=65	=65
1i	E:min	123.854	newline	voice	1E 1g 1b
=66	=66	=66	=66	=66	=66
1i	E:min	125.773	.	voice	1E 1g 1b
=67	=67	=67	=67	=67	=67
1i	E:min	127.693	.	voice	1E 1g 1b
=68	=68	=68	=68	=68	=68
1i	E:min	129.613	.	voice	1E 1g 1b
=69	=69	=69	=69	=69	=69
1i	E:min	131.532	newline	voice	1E 1g 1b
=70	=70	=70	=70	=70	=70
1i	E:min	133.449	.	voice	1E 1g 1b
=71	=71	=71	=71	=71	=71
1i	E:min	135.365	.	voice	1E 1g 1b
=72	=72	=72	=72	=72	=72
1i	E:min	137.281	.	voice	1E 1g 1b
=73	=73	=73	=73	=73	=73
*>C_prechorus	*>C_prechorus	*>C_prechorus	*>C_prechorus	*>C_prechorus	*>C_prechorus
1-VI	C:maj	139.197	newline	voice	1C- 1e- 1g-
=74	=74	=74	=74	=74	=74
1-VII	D:maj	141.11	.	voice	1D 1f# 1a
=75	=75	=75	=75	=75	=75
1i	E:min	143.022	.	voice	1E 1g 1b
=76	=76	=76	=76	=76	=76
1i	E:min	144.934	.	voice	1E 1g 1b
=77	=77	=77	=77	=77	=77
1-VI	C:maj	146.847	newline	voice	1C- 1e- 1g-
=78	=78	=78	=78	=78	=78
1-VII	D:maj	148.754	.	voice	1D 1f# 1a
=79	=79	=79	=79	=79	=79
1i	E:min	150.661	.	voice	1E 1g 1b
=80	=80	=80	=80	=80	=80
1i	E:min	152.567	.	voice	1E 1g 1b
=81	=81	=81	=81	=81	=81
*>D_chorus	*>D_chorus	*>D_chorus	*>D_chorus	*>D_chorus	*>D_chorus
1i	E:min	154.474	newline	voice	1E 1g 1b
=82	=82	=82	=82	=82	=82
2-VI	C:maj	156.387	.	voice	2C- 2e- 2g-
2-VII	D:sus4	157.344	.	voice	2D 2f# 2a
=83	=83	=83	=83	=83	=83
1i	E:min	158.3	.	voice	1E 1g 1b
=84	=84	=84	=84	=84	=84
2-VI	C:maj	160.214	.	voice	2C- 2e- 2g-
2-VII	D:sus4	161.17	.	voice	2D 2f# 2a
=85	=85	=85	=85	=85	=85
1i	E:min	162.127	newline	voice	1E 1g 1b
=86	=86	=86	=86	=86	=86
2-VI	C:maj	164.045	.	voice	2C- 2e- 2g-
2-VII	D:sus4	165.004	.	voice	2D 2f# 2a
=87	=87	=87	=87	=87	=87
1i	E:min	165.963	.	voice	1E 1g 1b
=88	=88	=88	=88	=88	=88
2-VI	C:maj	167.881	.	voice	2C- 2e- 2g-
2-VII	D:sus4	168.84	.	voice	2D 2f# 2a
=89	=89	=89	=89	=89	=89
1i	E:min	169.799	newline	voice	1E 1g 1b
=90	=90	=90	=90	=90	=90
2-VI	C:maj	171.7	.	voice	2C- 2e- 2g-
2-VII	D:sus4	172.651	.	voice	2D 2f# 2a
=91	=91	=91	=91	=91	=91
1i	E:min	173.602	.	voice	1E 1g 1b
=92	=92	=92	=92	=92	=92
2-VI	C:maj	175.504	.	voice	2C- 2e- 2g-
2-VII	D:sus4	176.455	.	voice	2D 2f# 2a
=93	=93	=93	=93	=93	=93
1i	E:min	177.406	newline	voice	1E 1g 1b
=94	=94	=94	=94	=94	=94
2-VI	C:maj	179.32	.	voice	2C- 2e- 2g-
2-VII	D:sus4	180.278	.	voice	2D 2f# 2a
=95	=95	=95	=95	=95	=95
1i	E:min	181.235	.	voice	1E 1g 1b
=96	=96	=96	=96	=96	=96
2-VI	C:maj	183.15	.	voice	2C- 2e- 2g-
2-VII	D:sus4	184.107	.	voice	2D 2f# 2a
=97	=97	=97	=97	=97	=97
*>B_interlude	*>B_interlude	*>B_interlude	*>B_interlude	*>B_interlude	*>B_interlude
1i	E:min	185.064	newline	voice	1E 1g 1b
=98	=98	=98	=98	=98	=98
1i	E:min	186.98	.	voice	1E 1g 1b
=99	=99	=99	=99	=99	=99
1i	E:min	188.895	.	voice	1E 1g 1b
=100	=100	=100	=100	=100	=100
1i	E:min	190.811	.	voice	1E 1g 1b
=101	=101	=101	=101	=101	=101
1i	E:min	192.726	newline	voice	1E 1g 1b
=102	=102	=102	=102	=102	=102
1i	E:min	194.638	.	voice	1E 1g 1b
=103	=103	=103	=103	=103	=103
1i	E:min	196.549	.	voice	1E 1g 1b
=104	=104	=104	=104	=104	=104
1i	E:min	198.461	.	voice	1E 1g 1b
=105	=105	=105	=105	=105	=105
*>B_solo	*>B_solo	*>B_solo	*>B_solo	*>B_solo	*>B_solo
1i	E:min	200.373	newline	electric guitar	1E 1g 1b
=106	=106	=106	=106	=106	=106
1i	E:min	202.302	.	electric guitar	1E 1g 1b
=107	=107	=107	=107	=107	=107
1i	E:min	204.231	.	electric guitar	1E 1g 1b
=108	=108	=108	=108	=108	=108
1i	E:min	206.16	.	electric guitar	1E 1g 1b
=109	=109	=109	=109	=109	=109
1i	E:min	208.089	newline	electric guitar	1E 1g 1b
=110	=110	=110	=110	=110	=110
1i	E:min	210	.	electric guitar	1E 1g 1b
=111	=111	=111	=111	=111	=111
1i	E:min	211.911	.	electric guitar	1E 1g 1b
=112	=112	=112	=112	=112	=112
1i	E:min	213.823	.	electric guitar	1E 1g 1b
=113	=113	=113	=113	=113	=113
1i	E:min	215.734	newline	electric guitar	1E 1g 1b
=114	=114	=114	=114	=114	=114
1i	E:min	217.638	.	electric guitar	1E 1g 1b
=115	=115	=115	=115	=115	=115
1i	E:min	219.543	.	electric guitar	1E 1g 1b
=116	=116	=116	=116	=116	=116
1i	E:min	221.447	.	electric guitar	1E 1g 1b
=117	=117	=117	=117	=117	=117
1i	E:min	223.351	newline	electric guitar	1E 1g 1b
=118	=118	=118	=118	=118	=118
1i	E:min	225.274	.	electric guitar	1E 1g 1b
=119	=119	=119	=119	=119	=119
1i	E:min	227.197	.	electric guitar	1E 1g 1b
=120	=120	=120	=120	=120	=120
1i	E:min	229.119	.	electric guitar	1E 1g 1b
=121	=121	=121	=121	=121	=121
*>C_prechorus	*>C_prechorus	*>C_prechorus	*>C_prechorus	*>C_prechorus	*>C_prechorus
1-VI	C:maj	231.042	newline	voice	1C- 1e- 1g-
=122	=122	=122	=122	=122	=122
1-VII	D:maj	232.939	.	voice	1D 1f# 1a
=123	=123	=123	=123	=123	=123
1i	E:min	234.835	.	voice	1E 1g 1b
=124	=124	=124	=124	=124	=124
1i	E:min	236.732	.	voice	1E 1g 1b
=125	=125	=125	=125	=125	=125
1-VI	C:maj	238.628	newline	voice	1C- 1e- 1g-
=126	=126	=126	=126	=126	=126
1-VII	D:maj	240.536	.	voice	1D 1f# 1a
=127	=127	=127	=127	=127	=127
1i	E:min	242.444	.	voice	1E 1g 1b
=128	=128	=128	=128	=128	=128
1i	E:min	244.352	.	voice	1E 1g 1b
=129	=129	=129	=129	=129	=129
*>D_chorus	*>D_chorus	*>D_chorus	*>D_chorus	*>D_chorus	*>D_chorus
1i	E:min	246.26	newline	voice	1E 1g 1b
=130	=130	=130	=130	=130	=130
2-VI	C:maj	248.192	.	voice	2C- 2e- 2g-
2-VII	D:sus4	249.158	.	voice	2D 2f# 2a
=131	=131	=131	=131	=131	=131
1i	E:min	250.123	.	voice	1E 1g 1b
=132	=132	=132	=132	=132	=132
2-VI	C:maj	252.055	.	voice	2C- 2e- 2g-
2-VII	D:sus4	253.021	.	voice	2D 2f# 2a
=133	=133	=133	=133	=133	=133
1i	E:min	253.987	newline	voice	1E 1g 1b
=134	=134	=134	=134	=134	=134
2-VI	C:maj	255.912	.	voice	2C- 2e- 2g-
2-VII	D:sus4	256.874	.	voice	2D 2f# 2a
=135	=135	=135	=135	=135	=135
1i	E:min	257.836	.	voice	1E 1g 1b
=136	=136	=136	=136	=136	=136
2-VI	C:maj	259.761	.	voice	2C- 2e- 2g-
2-VII	D:sus4	260.723	.	voice	2D 2f# 2a
=137	=137	=137	=137	=137	=137
1i	E:min	261.685	newline	voice	1E 1g 1b
=138	=138	=138	=138	=138	=138
2-VI	C:maj	263.603	.	voice	2C- 2e- 2g-
2-VII	D:sus4	264.562	.	voice	2D 2f# 2a
=139	=139	=139	=139	=139	=139
1i	E:min	265.521	.	voice	1E 1g 1b
=140	=140	=140	=140	=140	=140
2-VI	C:maj	267.438	.	voice	2C- 2e- 2g-
2-VII	D:sus4	268.397	.	voice	2D 2f# 2a
=141	=141	=141	=141	=141	=141
1i	E:min	269.356	newline	voice	1E 1g 1b
=142	=142	=142	=142	=142	=142
2-VI	C:maj	271.258	.	voice	2C- 2e- 2g-
2-VII	D:sus4	272.21	.	voice	2D 2f# 2a
=143	=143	=143	=143	=143	=143
1i	E:min	273.161	.	voice	1E 1g 1b
=144	=144	=144	=144	=144	=144
2-VI	C:maj	275.063	.	voice	2C- 2e- 2g-
2-VII	D:sus4	276.014	.	voice	2D 2f# 2a
=145	=145	=145	=145	=145	=145
*>D2_outro	*>D2_outro	*>D2_outro	*>D2_outro	*>D2_outro	*>D2_outro
1i	E:min	276.966	newline	voice	1E 1g 1b
=146	=146	=146	=146	=146	=146
1i	E:min	278.873	.	voice	1E 1g 1b
=147	=147	=147	=147	=147	=147
1i	E:min	280.781	.	voice	1E 1g 1b
=148	=148	=148	=148	=148	=148
1i	E:min	282.689	.	voice	1E 1g 1b
=149	=149	=149	=149	=149	=149
1i	E:min	284.597	newline	voice	1E 1g 1b
=150	=150	=150	=150	=150	=150
1i	E:min	286.514	.	voice	1E 1g 1b
=151	=151	=151	=151	=151	=151
1i	E:min	288.431	.	voice	1E 1g 1b
=152	=152	=152	=152	=152	=152
1i	E:min	290.348	.	voice	1E 1g 1b
=153	=153	=153	=153	=153	=153
1i	E:min	292.265	newline	voice	1E 1g 1b
=154	=154	=154	=154	=154	=154
1i	E:min	294.173	.	voice	1E 1g 1b
=155	=155	=155	=155	=155	=155
1i	E:min	296.08	.	voice	1E 1g 1b
=156	=156	=156	=156	=156	=156
1i	E:min	297.988	.	voice	1E 1g 1b
=157	=157	=157	=157	=157	=157
1i	E:min	299.896	newline	voice	1E 1g 1b
=158	=158	=158	=158	=158	=158
1i	E:min	301.794	.	voice	1E 1g 1b
1r;	N	304.167	.	r	1r;
1r;	N	305.842	.	r	1r;
*-	*-	*-	*-	*-	*-
!!!OTL: Some Like It Hot
!!!COC: The Power Station
!!!BillboardChartDate: 1985/04/06
!!!BillboardPeak: 6
!!!BillboardWeeksOnChart: 18
!!!SampleTargetRank: 25
!!!SampleActualRank: 24
!!!SampleID#: 0044
!!!RDF**harmony: **recip + pitch class of root + harmonic quality
!!!RDF**harte: Chris Harte's syntax, used by MIREX
!!!RDF**phrase: newline = linebreak in original McGill transcription
!!!RDF**timestamp: McGill audio timestamp in seconds
!!!RDF**leadinstrument: original McGill primary instrumentation annotation
!!!RDT: 2017/01/12/
!!!ENC: Nathaniel Condit-Schultz
!!!EST: Awating manual error checking and editing.
